X: 34303
T: Restless Boy, The
R: jig
M: 6/8
K: Gmajor
BGG Add|BcB BAG|BGG ADD|GAG GED|
BGG AFF|BGG ABc|dge f2d|cAF G2D:|
|:GBd ~g3|fed cAF|GBd ~g3|faf ~g3|
faf g2e|fed cAG|1 ~B3 BAG|BdB cBA:|2 faf gfe|ded dcA||
|:GBB B2d|cAA AFD|GBB BAG|BdB cBA|
GBB B2d|cAG ABc|dge f2d|cAF G3:|

